proprietary/assets/icons/vervoersmiddelen/schip-en-schuine-oever.svg

<svg height="64" viewBox="0 0 64 64" width="64" xmlns="http://www.w3.org/2000/svg"><path d="m0 0h64v64h-64z" fill="none"/><path d="m17.5 37c2.8105 0 5.542-1.1914 7-1.9521 1.458.7607 4.1895 1.9521 7 1.9521s5.542-1.1914 7-1.9521c1.458.7607 4.1895 1.9521 7 1.9521 1.1212 0 2.2255-.1932 3.2457-.4695l1.9412-4.9605c-1.0786.5674-3.1857 1.52-5.1868 1.52-2.8506 0-5.8916-1.915-5.9189-1.9326l-1.0812-.6953-1.0811.6953c-.0302.0195-3.0859 1.9326-5.9189 1.9326-2.8506 0-5.8916-1.915-5.9189-1.9326l-1.0811-.6953-1.0811.6953c-.0302.0195-3.0859 1.9326-5.9189 1.9326-2.0102 0-4.1102-.9504-5.1861-1.5181l1.9404 4.9586c1.0202.2763 2.1245.4695 3.2457.4695z"/><path d="m55.1504 26-8.0713 21h-31.1582l-8.0713-21h-6.8496v5h3.4141l7.334 19.0791c.4423 1.1494 1.5673 1.9209 2.7988 1.9209h33.9062c1.2314 0 2.3564-.7715 2.8008-1.9238l7.332-19.0762h3.4141v-5z"/><path d="m18 18.8096c0 4.0056.8432 8.7863 1.4347 11.6512 1.2893-.3943 2.4467-1.0198 2.7938-1.243l2.2715-1.46 2.2715 1.46c.6514.4092 2.9238 1.582 4.7285 1.582 1.8818 0 4.209-1.248 4.7285-1.582l2.2715-1.46 2.2715 1.46c.4283.269 1.5592.8632 2.7953 1.2421.5915-2.8598 1.4332-7.6302 1.4332-11.6503 0 0-1.6298-.8533-4-1.7518v-6.5578c0-.2762-.2239-.5-.5-.5h-2.5v-3.5c0-.2762-.2239-.5-.5-.5h-12c-.2762 0-.5.2238-.5.5v3.5h-2.5c-.2762 0-.5.2238-.5.5v3.8931c1.683-.4659 3.7591-.885 6.1655-1.0569 4.1597-.2971 7.0955.9127 8.9664 2.0582.244.1494.3149.3262.2958.4954-1.9031-.5146-3.9633-.8898-5.9277-.8898-6.2612 0-13.5 3.8096-13.5 3.8096zm11 6.1904h-7v-3c0-.5527.4478-1 1-1s1 .4473 1 1v1h3v-1c0-.5528.4478-1 1-1s1 .4472 1 1zm5-3c0-.5527.4478-1 1-1s1 .4473 1 1v1h3v-1c0-.5528.4478-1 1-1s1 .4472 1 1v3h-7z"/></svg>

<?xml version="1.0" encoding="utf-8"?>
<!-- Generator: Adobe Illustrator 17.1.0, SVG Export Plug-In . SVG Version: 6.00 Build 0)  -->
<svg version="1.2" baseProfile="tiny" xmlns="http://www.w3.org/2000/svg" xmlns:xlink="http://www.w3.org/1999/xlink" x="0px"
	 y="0px" width="64px" height="64px" viewBox="0 0 64 64" xml:space="preserve">
<g id="_x36_4px_Boxes">
	<rect fill="none" width="64" height="64"/>
</g>
<g id="Production">
	<g>
		<path d="M17.5,37c2.8105,0,5.542-1.1914,7-1.9521C25.958,35.8086,28.6895,37,31.5,37s5.542-1.1914,7-1.9521
			C39.958,35.8086,42.6895,37,45.5,37c1.1212,0,2.2255-0.1932,3.2457-0.4695l1.9412-4.9605c-1.0786,0.5674-3.1857,1.52-5.1868,1.52
			c-2.8506,0-5.8916-1.915-5.9189-1.9326L38.5,30.4621l-1.0811,0.6953C37.3887,31.1769,34.333,33.09,31.5,33.09
			c-2.8506,0-5.8916-1.915-5.9189-1.9326L24.5,30.4621l-1.0811,0.6953C23.3887,31.1769,20.333,33.09,17.5,33.09
			c-2.0102,0-4.1102-0.9504-5.1861-1.5181l1.9404,4.9586C15.2745,36.8068,16.3788,37,17.5,37z"/>
		<path d="M55.1504,26l-8.0713,21H15.9209L7.8496,26H1v5h3.4141l7.334,19.0791C12.1904,51.2285,13.3154,52,14.5469,52h33.9062
			c1.2314,0,2.3564-0.7715,2.8008-1.9238L58.5859,31H62v-5H55.1504z"/>
		<path d="M18,18.8096c0,4.0056,0.8432,8.7863,1.4347,11.6512c1.2893-0.3943,2.4467-1.0198,2.7938-1.243l2.2715-1.46l2.2715,1.46
			c0.6514,0.4092,2.9238,1.582,4.7285,1.582c1.8818,0,4.209-1.248,4.7285-1.582l2.2715-1.46l2.2715,1.46
			c0.4283,0.269,1.5592,0.8632,2.7953,1.2421C44.1583,27.6001,45,22.8297,45,18.8096c0,0-1.6298-0.8533-4-1.7518V10.5
			c0-0.2762-0.2239-0.5-0.5-0.5H38V6.5C38,6.2238,37.7761,6,37.5,6h-12C25.2238,6,25,6.2238,25,6.5V10h-2.5
			c-0.2762,0-0.5,0.2238-0.5,0.5v3.8931c1.683-0.4659,3.7591-0.885,6.1655-1.0569c4.1597-0.2971,7.0955,0.9127,8.9664,2.0582
			c0.244,0.1494,0.3149,0.3262,0.2958,0.4954C35.5246,15.3752,33.4644,15,31.5,15C25.2388,15,18,18.8096,18,18.8096z M29,25h-7v-3
			c0-0.5527,0.4478-1,1-1s1,0.4473,1,1v1h3v-1c0-0.5528,0.4478-1,1-1s1,0.4472,1,1V25z M34,22c0-0.5527,0.4478-1,1-1s1,0.4473,1,1v1
			h3v-1c0-0.5528,0.4478-1,1-1c0.5522,0,1,0.4472,1,1v3h-7V22z"/>
	</g>
</g>
</svg>
